X: 2
T: Liza Lynn
S: The Kilfenora Ceili Band: Set On Stone
M: 3/4
L: 1/8
R: waltz
K: A Major
CD |\ 
E2 A3 B | c4 Bc | d2 A3 F | D4 F2 | 
E2 G2 B2 | g2 f2 g2 | a2 ef ed | c4 CD |
E2 A2 B2 | c4 Bc | d2 A2 F2 | D4 F2 | 
E2 G2 B2 | g2 f2 g2 | a2 ag ab | a4 ||
|: cd |\ 
ea az zA | Ac cz zA | df fd Bd | F3 A GF | 
E2 G2 B2 | g2 f2 g2 |[1 a2 ef ed | c3 B cd |[2 a2 ag ab | a4 :|]
